16/apps/soundconverter.svg

<?xml version="1.0" encoding="UTF-8" standalone="no"?>
<!-- Created with Inkscape (http://www.inkscape.org/) -->

<svg
   width="16"
   height="16"
   id="svg4159"
   version="1.1"
   inkscape:version="1.1.2 (0a00cf5339, 2022-02-04, custom)"
   viewBox="0 0 16 16"
   sodipodi:docname="soundconverter.svg"
   xmlns:inkscape="http://www.inkscape.org/namespaces/inkscape"
   xmlns:sodipodi="http://sodipodi.sourceforge.net/DTD/sodipodi-0.dtd"
   xmlns="http://www.w3.org/2000/svg"
   xmlns:svg="http://www.w3.org/2000/svg"
   xmlns:rdf="http://www.w3.org/1999/02/22-rdf-syntax-ns#"
   xmlns:cc="http://creativecommons.org/ns#"
   xmlns:dc="http://purl.org/dc/elements/1.1/">
  <title
     id="title815">Boston Icons</title>
  <defs
     id="defs4161">
    <inkscape:perspective
       sodipodi:type="inkscape:persp3d"
       inkscape:vp_x="0 : 8 : 1"
       inkscape:vp_y="0 : 1000 : 0"
       inkscape:vp_z="16 : 8 : 1"
       inkscape:persp3d-origin="8 : 5.3333333 : 1"
       id="perspective4709" />
    <clipPath
       clipPathUnits="userSpaceOnUse"
       id="clipPath5603">
      <path
         style="fill:#00ffff;fill-opacity:1;stroke:none;stroke-width:0.26458335px;stroke-linecap:butt;stroke-linejoin:miter;stroke-opacity:1"
         d="m 61.912499,165.76667 -6.879168,6.87917 6.879168,6.87916 6.879167,-6.87916 z"
         id="path5605"
         inkscape:connector-curvature="0" />
    </clipPath>
  </defs>
  <sodipodi:namedview
     id="base"
     pagecolor="#ffffff"
     bordercolor="#00fff6"
     borderopacity="1"
     inkscape:pageopacity="0"
     inkscape:pageshadow="2"
     inkscape:zoom="44.395604"
     inkscape:cx="5.2257426"
     inkscape:cy="7.0952971"
     inkscape:current-layer="layer1"
     showgrid="false"
     inkscape:grid-bbox="true"
     inkscape:document-units="px"
     inkscape:window-width="1920"
     inkscape:window-height="1011"
     inkscape:window-x="0"
     inkscape:window-y="0"
     inkscape:window-maximized="1"
     showguides="false"
     inkscape:guide-bbox="true"
     inkscape:pagecheckerboard="0">
    <inkscape:grid
       type="xygrid"
       id="grid4707" />
    <sodipodi:guide
       position="8,9"
       orientation="1,0"
       id="guide3096"
       inkscape:locked="false" />
    <sodipodi:guide
       position="12,8"
       orientation="0,1"
       id="guide3098"
       inkscape:locked="false" />
  </sodipodi:namedview>
  <metadata
     id="metadata4164">
    <rdf:RDF>
      <cc:Work
         rdf:about="">
        <dc:format>image/svg+xml</dc:format>
        <dc:type
           rdf:resource="http://purl.org/dc/dcmitype/StillImage" />
        <dc:title>Boston Icons</dc:title>
        <cc:license
           rdf:resource="dribbble.com/chrisdiaz" />
        <dc:creator>
          <cc:Agent>
            <dc:title>Christian Díaz</dc:title>
          </cc:Agent>
        </dc:creator>
        <dc:date>2022</dc:date>
        <dc:publisher>
          <cc:Agent>
            <dc:title>Christian Díaz</dc:title>
          </cc:Agent>
        </dc:publisher>
        <dc:identifier>christiandiaz.design [at] gmail [dot] com</dc:identifier>
        <dc:subject>
          <rdf:Bag>
            <rdf:li>GNOME icon Theme</rdf:li>
          </rdf:Bag>
        </dc:subject>
        <dc:description>dribbble.com/chrisdiaz | diazchris.deviantart.com</dc:description>
      </cc:Work>
    </rdf:RDF>
  </metadata>
  <g
     id="layer1"
     inkscape:label="Layer 1"
     inkscape:groupmode="layer">
    <g
       id="g1253">
      <rect
         ry="1"
         y="2"
         x="0"
         height="14"
         width="16"
         id="rect853"
         style="fill:#556e81;fill-opacity:1;fill-rule:nonzero;stroke:none;stroke-width:2;stroke-linecap:square;stroke-linejoin:bevel;stroke-miterlimit:4;stroke-dasharray:none;stroke-dashoffset:35;stroke-opacity:1"
         rx="1" />
      <rect
         style="fill:#96a5af;stroke-width:2;stroke-linejoin:round"
         id="rect1044"
         width="7"
         height="12"
         x="1"
         y="3"
         rx="0"
         ry="0" />
      <path
         id="path1287"
         style="fill:#2d8cff;stroke-width:2;stroke-linejoin:round"
         d="M 8 3 L 8 15 L 15 15 L 15 3 L 8 3 z " />
      <path
         id="rect1432"
         style="fill:#ffffff;stroke-width:2;stroke-linejoin:round"
         d="M 8,5 C 7.446,5 7,5.446 7,6 v 6 c 0,0.554 0.446,1 1,1 0.554,0 1,-0.446 1,-1 V 6 C 9,5.446 8.554,5 8,5 Z M 4,7 C 3.446,7 3,7.446 3,8 v 2 c 0,0.554 0.446,1 1,1 0.554,0 1,-0.446 1,-1 V 8 C 5,7.446 4.554,7 4,7 Z m 8,0 c -0.554,0 -1,0.446 -1,1 v 2 c 0,0.554 0.446,1 1,1 0.554,0 1,-0.446 1,-1 V 8 C 13,7.446 12.554,7 12,7 Z" />
    </g>
  </g>
</svg>

<?xml version="1.0" encoding="UTF-8" standalone="no"?>
<!-- Created with Inkscape (http://www.inkscape.org/) -->

<svg
   width="16"
   height="16"
   id="svg4159"
   version="1.1"
   inkscape:version="1.1 (c4e8f9ed74, 2021-05-24)"
   viewBox="0 0 16 16"
   sodipodi:docname="soundconverter.svg"
   xmlns:inkscape="http://www.inkscape.org/namespaces/inkscape"
   xmlns:sodipodi="http://sodipodi.sourceforge.net/DTD/sodipodi-0.dtd"
   xmlns="http://www.w3.org/2000/svg"
   xmlns:svg="http://www.w3.org/2000/svg"
   xmlns:rdf="http://www.w3.org/1999/02/22-rdf-syntax-ns#"
   xmlns:cc="http://creativecommons.org/ns#"
   xmlns:dc="http://purl.org/dc/elements/1.1/">
  <title
     id="title815">Boston Icons</title>
  <defs
     id="defs4161">
    <inkscape:perspective
       sodipodi:type="inkscape:persp3d"
       inkscape:vp_x="0 : 8 : 1"
       inkscape:vp_y="0 : 1000 : 0"
       inkscape:vp_z="16 : 8 : 1"
       inkscape:persp3d-origin="8 : 5.3333333 : 1"
       id="perspective4709" />
    <clipPath
       clipPathUnits="userSpaceOnUse"
       id="clipPath5603">
      <path
         style="fill:#00ffff;fill-opacity:1;stroke:none;stroke-width:0.26458335px;stroke-linecap:butt;stroke-linejoin:miter;stroke-opacity:1"
         d="m 61.912499,165.76667 -6.879168,6.87917 6.879168,6.87916 6.879167,-6.87916 z"
         id="path5605"
         inkscape:connector-curvature="0" />
    </clipPath>
  </defs>
  <sodipodi:namedview
     id="base"
     pagecolor="#ffffff"
     bordercolor="#00fff6"
     borderopacity="1"
     inkscape:pageopacity="0"
     inkscape:pageshadow="2"
     inkscape:zoom="22.197802"
     inkscape:cx="0.4279703"
     inkscape:cy="9.9784654"
     inkscape:current-layer="layer1"
     showgrid="false"
     inkscape:grid-bbox="true"
     inkscape:document-units="px"
     inkscape:window-width="1920"
     inkscape:window-height="1011"
     inkscape:window-x="0"
     inkscape:window-y="32"
     inkscape:window-maximized="1"
     showguides="false"
     inkscape:guide-bbox="true"
     inkscape:pagecheckerboard="0">
    <inkscape:grid
       type="xygrid"
       id="grid4707" />
    <sodipodi:guide
       position="8,9"
       orientation="1,0"
       id="guide3096"
       inkscape:locked="false" />
    <sodipodi:guide
       position="12,8"
       orientation="0,1"
       id="guide3098"
       inkscape:locked="false" />
  </sodipodi:namedview>
  <metadata
     id="metadata4164">
    <rdf:RDF>
      <cc:Work
         rdf:about="">
        <dc:format>image/svg+xml</dc:format>
        <dc:type
           rdf:resource="http://purl.org/dc/dcmitype/StillImage" />
        <dc:title>Boston Icons</dc:title>
        <cc:license
           rdf:resource="dribbble.com/chrisdiaz" />
        <dc:creator>
          <cc:Agent>
            <dc:title>Christian Díaz</dc:title>
          </cc:Agent>
        </dc:creator>
        <dc:date>2021</dc:date>
        <dc:publisher>
          <cc:Agent>
            <dc:title>Christian Díaz</dc:title>
          </cc:Agent>
        </dc:publisher>
        <dc:identifier>christiandiaz.design [at] gmail [dot] com</dc:identifier>
        <dc:subject>
          <rdf:Bag>
            <rdf:li>GNOME icon Theme</rdf:li>
          </rdf:Bag>
        </dc:subject>
        <dc:description>dribbble.com/chrisdiaz | diazchris.deviantart.com</dc:description>
      </cc:Work>
    </rdf:RDF>
  </metadata>
  <g
     id="layer1"
     inkscape:label="Layer 1"
     inkscape:groupmode="layer">
    <g
       id="g1727">
      <rect
         ry="2"
         y="2"
         x="0"
         height="14"
         width="16"
         id="rect853"
         style="fill:#2f3744;fill-opacity:1;fill-rule:nonzero;stroke:none;stroke-width:2;stroke-linecap:square;stroke-linejoin:bevel;stroke-miterlimit:4;stroke-dasharray:none;stroke-dashoffset:35;stroke-opacity:1"
         rx="2" />
      <rect
         style="fill:#96a5af;stroke-width:2;stroke-linejoin:round"
         id="rect1044"
         width="14"
         height="12"
         x="1"
         y="3"
         rx="1"
         ry="1" />
      <path
         id="path1287"
         style="fill:#2d8cff;stroke-width:2;stroke-linejoin:round"
         d="M 8 3 L 8 15 L 14 15 C 14.554 15 15 14.554 15 14 L 15 4 C 15 3.446 14.554 3 14 3 L 8 3 z " />
      <path
         id="rect1432"
         style="fill:#ffffff;stroke-width:2;stroke-linejoin:round"
         d="M 8 5 C 7.446 5 7 5.446 7 6 L 7 12 C 7 12.554 7.446 13 8 13 C 8.554 13 9 12.554 9 12 L 9 6 C 9 5.446 8.554 5 8 5 z M 4 7 C 3.446 7 3 7.446 3 8 L 3 10 C 3 10.554 3.446 11 4 11 C 4.554 11 5 10.554 5 10 L 5 8 C 5 7.446 4.554 7 4 7 z M 12 7 C 11.446 7 11 7.446 11 8 L 11 10 C 11 10.554 11.446 11 12 11 C 12.554 11 13 10.554 13 10 L 13 8 C 13 7.446 12.554 7 12 7 z " />
    </g>
  </g>
</svg>
